X: 6
T: Paddy O'Rafferty
R: jig
M: 6/8
L: 1/8
K: Dmix
GA|BDD EDE|{d}cBA GED|BDD EDE|GAG {A}GED|BDD EDE|{d}cBA GED|(3Bcd B cBA|GAG GED||GBB FAA|GAB {d}cBA|GBB FAA|GAG GED|GBB FAA|GAB {d}cBA|(3Bcd B cBA|GAG GED||d^cd ef{a}g|ded {e}dBG|d^cd ef{a}g|GAG GED|d^cd ef{a}g|ded {e}dBG|{a}gfe dBG|(3ABA G FED||~B2G A2G|~B2G AGE|~B2G A2G|GAG {A}GED|BGG AGG|BGG AGE|(3Bcd B cBA|GAG GED||G2||


Tune 741	Setting 16883

